icons/op-assigned-24.svg

<svg width="24" height="24" viewBox="0 0 24 24" fill="none" xmlns="http://www.w3.org/2000/svg">
<path d="M14.4848 7.50692C14.4848 9.44374 13.0018 11.0138 11.1724 11.0138C9.34304 11.0138 7.86005 9.44374 7.86005 7.50692C7.86005 5.5701 9.34304 4 11.1724 4C13.0018 4 14.4848 5.5701 14.4848 7.50692Z" fill="black"/>
<path d="M8.51656 15.1045C8.35866 15.3354 8.26899 15.6108 8.25889 15.8957C8.24945 16.0882 8.27644 16.2807 8.33824 16.462C8.40005 16.6433 8.49544 16.8097 8.61882 16.9514L10.1121 18.6508H5.94363C5.69072 18.6428 5.45072 18.5307 5.27455 18.3384C5.09838 18.1461 4.99991 17.8887 5.00002 17.6209V14.8452C4.99896 14.732 5.03315 14.6216 5.0973 14.5311C5.85566 13.6215 6.79298 12.899 7.84338 12.4141C8.89378 11.9292 10.0317 11.6938 11.1773 11.7245C12.8286 11.7008 14.4481 12.2071 15.8224 13.1767L12.4954 17.1059L10.6179 14.9688C10.4347 14.7598 10.197 14.6131 9.93504 14.5471C9.67305 14.4811 9.39845 14.4988 9.14597 14.598C8.89349 14.6972 8.67446 14.8735 8.51656 15.1045Z" fill="black"/>
<path d="M16.4109 18.6508C16.6638 18.6428 16.9038 18.5307 17.08 18.3384C17.2562 18.1461 17.3546 17.8887 17.3545 17.6209V15.6846L14.8593 18.6508H16.4109Z" fill="black"/>
<path d="M18.6835 11.657C18.7442 11.6797 18.8 11.7149 18.8478 11.7605C18.9387 11.8516 18.993 11.9763 18.9994 12.1086C19.0057 12.241 18.9636 12.3709 18.8818 12.4712L12.5392 20L9.29005 16.2922C9.24447 16.2444 9.20828 16.1874 9.18359 16.1247C9.15889 16.0619 9.14618 15.9946 9.14618 15.9266C9.14618 15.8586 9.15889 15.7913 9.18359 15.7286C9.20828 15.6658 9.24447 15.6089 9.29005 15.561C9.3386 15.517 9.39484 15.4836 9.45558 15.4627C9.51632 15.4417 9.58036 15.4337 9.64405 15.4389C9.70773 15.4442 9.76981 15.4627 9.82675 15.4933C9.88369 15.524 9.93436 15.5662 9.97587 15.6176L12.5051 18.4963L18.1571 11.8017C18.1997 11.7507 18.2514 11.7091 18.3093 11.6793C18.3672 11.6496 18.4301 11.6323 18.4943 11.6285C18.5585 11.6246 18.6229 11.6343 18.6835 11.657Z" fill="black"/>
</svg>

<svg xmlns="http://www.w3.org/2000/svg" width="24" height="24" viewBox="0 0 24 24"><path d="M14.485 7.507c0 1.937-1.483 3.507-3.313 3.507-1.829 0-3.312-1.57-3.312-3.507S9.343 4 11.172 4c1.83 0 3.313 1.57 3.313 3.507Zm-5.968 7.597a1.498 1.498 0 0 0-.258.792 1.508 1.508 0 0 0 .36 1.055l1.493 1.7H5.944a.946.946 0 0 1-.669-.313A1.057 1.057 0 0 1 5 17.621v-2.776a.538.538 0 0 1 .097-.314 7.889 7.889 0 0 1 2.746-2.117 7.466 7.466 0 0 1 3.334-.689 7.846 7.846 0 0 1 4.645 1.452l-3.327 3.929-1.877-2.137a1.347 1.347 0 0 0-.683-.422 1.292 1.292 0 0 0-.789.051 1.363 1.363 0 0 0-.629.506Zm7.894 3.547a.946.946 0 0 0 .669-.313c.176-.192.275-.449.275-.717v-1.936l-2.496 2.966h1.552Z"/><path d="M18.683 11.657a.485.485 0 0 1 .316.452.528.528 0 0 1-.117.362L12.539 20 9.29 16.292a.536.536 0 0 1 0-.731.483.483 0 0 1 .354-.122.472.472 0 0 1 .332.179l2.529 2.878 5.652-6.694a.464.464 0 0 1 .526-.145Z"/></svg>
